X:1
T: Allan Ramsay
C:
R:Jig
Q:180
K:A
M:6/8
L:1/16
|:f2|e4A2c4A2|cde2A2 c4A2|d2B2=G2 G2B2d2|=g2d2B2 =G4f2|
e4A2c4A2|cde2A2 c4A2|e2c2e2 e2c2a2|e2c2A2 A4:|
B2|A2c2e2 a2e2=g2|f2d2f2 e2d2c2|Bcd2B2 =G2B2d2|
=g2d2B2 G4B2|A2c2e2 a2e2=g2|f2d2f2 e2c2A2|c2d2e2 e2c2a2|e2c2A2 A4B2|
A2c2e2 a2e2=g2|f2d2f2 e2d2c2|Bcd2B2 =G2B2d2|
=g2d2B2 G4f2|e4A2 c4A2|cde2A2 c4A2|cde2e2 e2c2a2|e2c2A2A4||
